icons/bulb.svg

<svg xmlns="http://www.w3.org/2000/svg" viewBox="0 0 24 24" fill="currentColor">
  <path d="M12 2.5c-4.31421 0-7.75 3.43579-7.75 7.75 0 2.2133.91534 4.1486 2.31778 5.5555-.13916.2894-.21768.6102-.21768.9445 0 1.2142 1.03578 2.25 2.25 2.25h.33453c.33267 1.4445 1.60997 2.5 3.16547 2.5s2.8328-1.0555 3.1655-2.5h.3345c1.2142 0 2.25-1.0358 2.25-2.25 0-.3868-.1051-.7554-.2876-1.0782C18.8911 14.2771 19.75 12.394 19.75 10.25c0-4.31421-3.4358-7.75-7.75-7.75ZM13.6888 19c-.2746.5975-.8733 1-1.5887 1s-1.3141-.4025-1.5887-1h3.1774Zm.9113-1.5h1c.3858 0 .75-.3642.75-.75s-.3642-.75-.75-.75h-7c-.38579 0-.75.3642-.75.75s.36421.75.75.75h6Zm-6-3c-.34842 0-.68216.0853-.98094.2356C6.4788 13.5869 5.75 12.026 5.75 10.25 5.75 6.76421 8.51421 4 12 4c3.4858 0 6.25 2.76421 6.25 6.25 0 1.7435-.7023 3.2795-1.8068 4.422-.2622-.1105-.5474-.172-.8431-.172h-7Zm.34985-5.85002c0-.88578.66423-1.55 1.55005-1.55.4142 0 .75-.33579.75-.75 0-.41422-.3358-.75-.75-.75-1.71424 0-3.05005 1.33577-3.05005 3.05 0 .41421.33579.75.75.75s.75-.33579.75-.75Z"/>
</svg>

<svg width="24" height="24" viewBox="0 0 24 24" fill="none" xmlns="http://www.w3.org/2000/svg">
<path fill-rule="evenodd" clip-rule="evenodd" d="M12 2.5C7.68579 2.5 4.25 5.93579 4.25 10.25C4.25 12.4633 5.16534 14.3986 6.56778 15.8055C6.42862 16.0949 6.3501 16.4157 6.3501 16.75C6.3501 17.9642 7.38588 19 8.6001 19H8.93463C9.2673 20.4445 10.5446 21.5 12.1001 21.5C13.6556 21.5 14.9329 20.4445 15.2656 19H15.6001C16.8143 19 17.8501 17.9642 17.8501 16.75C17.8501 16.3632 17.745 15.9946 17.5625 15.6718C18.8911 14.2771 19.75 12.394 19.75 10.25C19.75 5.93579 16.3142 2.5 12 2.5ZM13.6888 19C13.4142 19.5975 12.8155 20 12.1001 20C11.3847 20 10.786 19.5975 10.5114 19H13.6888ZM14.6001 17.5H15.6001C15.9859 17.5 16.3501 17.1358 16.3501 16.75C16.3501 16.3642 15.9859 16 15.6001 16H8.6001C8.21431 16 7.8501 16.3642 7.8501 16.75C7.8501 17.1358 8.21431 17.5 8.6001 17.5H9.6001H14.6001ZM8.6001 14.5C8.25168 14.5 7.91794 14.5853 7.61916 14.7356C6.4788 13.5869 5.75 12.026 5.75 10.25C5.75 6.76421 8.51421 4 12 4C15.4858 4 18.25 6.76421 18.25 10.25C18.25 11.9935 17.5477 13.5295 16.4432 14.672C16.181 14.5615 15.8958 14.5 15.6001 14.5H8.6001ZM8.94995 8.64998C8.94995 7.7642 9.61418 7.09998 10.5 7.09998C10.9142 7.09998 11.25 6.76419 11.25 6.34998C11.25 5.93576 10.9142 5.59998 10.5 5.59998C8.78576 5.59998 7.44995 6.93575 7.44995 8.64998C7.44995 9.06419 7.78574 9.39998 8.19995 9.39998C8.61416 9.39998 8.94995 9.06419 8.94995 8.64998Z" fill="black"/>
</svg>
